src/assets/img/providers-white/reevo.svg

<svg width="42" height="34" viewBox="0 0 42 34" fill="none" xmlns="http://www.w3.org/2000/svg">
<g clip-path="url(#clip0_4540_8165)">
<path fill-rule="evenodd" clip-rule="evenodd" d="M29.9021 25.0942C29.8832 25.1757 29.7704 26.3545 29.645 27.7152C29.5196 29.0758 29.3503 30.9506 29.2688 31.8848L29.2211 32.4084L29.2211 32.4085L29.2211 32.4087L29.2211 32.409C29.1033 33.7013 29.0946 33.7975 29.1057 33.9038C29.1183 34.0229 32.2408 34.0229 32.2785 33.9038C32.291 33.8662 32.4039 32.7125 32.5293 31.3519C32.6484 29.9912 32.824 28.1102 32.9117 27.1822C32.9418 26.8379 32.9718 26.5021 32.9981 26.2084L32.9981 26.2079C33.0431 25.7049 33.0771 25.3255 33.081 25.2384L33.0936 24.9876L31.5135 24.9688L29.9271 24.9563L29.9021 25.0942ZM0.657983 25.0064C0.595282 25.0503 0.582741 25.9908 0.595282 29.5084L0.614092 33.954H2.21299H3.81188L3.84323 30.1856C3.87458 26.6492 3.88085 26.4047 3.98744 26.2855C4.1442 26.1163 4.38873 26.0598 4.60819 26.1539L4.62581 26.161C4.67518 26.1809 4.71751 26.198 4.7538 26.2237C4.97196 26.3778 4.97195 26.8408 4.97186 30.0867L4.97186 30.2859V33.9853L6.55821 33.9728L8.1383 33.954V32.5745C8.1383 31.2139 8.1383 31.1888 7.969 30.8377C7.66803 30.1981 7.04729 29.6714 6.45789 29.5648C6.10676 29.4959 6.12557 29.4269 6.51432 29.3893C6.96577 29.3454 7.4862 29.0883 7.73074 28.7936C8.04424 28.4111 8.1383 28.0349 8.1383 27.1508C8.1383 26.4611 8.11949 26.3294 7.98781 26.0347C7.81225 25.6397 7.44858 25.3137 7.04729 25.1757C6.88426 25.1256 6.4767 25.0566 6.13184 25.019C5.37942 24.95 0.770847 24.9375 0.657983 25.0064ZM10.6526 0.232979L10.7968 0.120117C10.9348 0.00725174 11.1292 0.000980377 14.4649 0.000980377C17.1924 0.000980377 18.0138 0.0197945 18.0891 0.0762253C18.1518 0.126385 18.3587 0.759674 18.5969 1.63123C18.8227 2.44008 19.249 3.97 19.5437 5.03593C19.8384 6.09559 20.083 6.99222 20.083 7.02357C20.083 7.0612 19.7068 7.08628 19.1362 7.08628H18.1894L18.227 7.29946C18.2521 7.41232 18.5154 8.40928 18.8227 9.50656C19.6754 12.5601 20.083 14.0462 20.083 14.1089C20.083 14.1465 19.6942 14.1716 19.1236 14.1716H18.158L18.5217 15.4695L18.6726 16.0113C18.8964 16.8144 19.2223 17.9839 19.481 18.9244C19.8134 20.1094 20.083 21.1064 20.083 21.1377C20.083 21.2318 12.6528 21.213 12.5713 21.1126C12.54 21.075 12.2139 19.9652 11.8502 18.6547L11.6919 18.0862C10.7015 14.5291 10.6555 14.364 10.7177 14.2902C10.7208 14.2866 10.7241 14.2833 10.7275 14.2797C10.7316 14.2755 10.736 14.271 10.7404 14.2656C10.8031 14.1904 10.9912 14.1716 11.6935 14.1716C12.4961 14.1716 12.565 14.1653 12.5337 14.0587C12.5094 13.981 12.4287 13.6888 12.1575 12.7071L11.869 11.6635C11.8234 11.4981 11.735 11.1798 11.6262 10.788L11.626 10.7871L11.6246 10.7821L11.6242 10.7807L11.6221 10.7732L11.6208 10.7682C11.4913 10.3022 11.3339 9.73534 11.1856 9.19932C10.9034 8.20864 10.6777 7.3747 10.6777 7.34335C10.6777 7.312 10.7216 7.23676 10.778 7.1866C10.8533 7.10509 11.0351 7.08628 11.7186 7.08628C12.4961 7.08628 12.565 7.08001 12.5337 6.97341C12.498 6.85759 12.1206 5.50417 11.6958 3.98137L11.6952 3.97904C11.5223 3.35924 11.3417 2.71148 11.1731 2.10776L10.6526 0.232979ZM22.7164 1.5685C23.0927 0.201603 23.1365 0.0761986 23.2682 0.0448494C23.3309 0.0260391 24.9424 0.0134964 26.861 0.00722885C30.1717 0.000957489 30.3598 0.00722885 30.4977 0.12009L30.6419 0.232952L30.1215 2.10774C29.8535 3.0674 29.6195 3.90619 29.4245 4.60495L29.4218 4.61465C29.0211 6.05121 28.7862 6.89331 28.7609 6.97339C28.7295 7.07998 28.7985 7.08625 29.576 7.08625C30.2595 7.08625 30.4413 7.10506 30.5165 7.18657C30.573 7.23674 30.6169 7.31198 30.6169 7.34333C30.6169 7.37468 30.3911 8.20861 30.109 9.1993L30.0377 9.45674C29.7667 10.4363 29.4068 11.7369 29.1998 12.4786C29.0938 12.8583 28.9948 13.2172 28.9176 13.4971C28.8303 13.8135 28.7709 14.0287 28.7609 14.0587C28.7295 14.1653 28.7985 14.1715 29.6011 14.1715C30.3159 14.1715 30.4915 14.1904 30.5542 14.2719C30.6231 14.3471 30.5918 14.5227 30.3786 15.2876C30.2874 15.6234 30.0729 16.3922 29.831 17.2588L29.8307 17.2601L29.8304 17.261L29.8301 17.2621L29.8286 17.2676L29.8274 17.2719C29.7045 17.7122 29.5747 18.1773 29.4506 18.6234C29.0869 19.9526 28.7546 21.075 28.7233 21.1126C28.6731 21.1753 27.8392 21.1941 24.9298 21.1941H21.1991L21.2367 21.0186C21.2743 20.8744 22.0393 18.1218 22.8732 15.1246L23.1365 14.1715H22.1772C21.5565 14.1715 21.2116 14.1465 21.2116 14.1088C21.2116 14.0399 21.4624 13.1307 22.4656 9.53162C22.7729 8.44688 23.0362 7.44992 23.0613 7.31825L23.1052 7.08625H22.1584C21.5753 7.08625 21.2116 7.06117 21.2116 7.02355C21.2116 6.9922 21.4749 6.00778 21.801 4.8478C21.9268 4.39785 22.0647 3.90218 22.1971 3.4263L22.1977 3.42409L22.1981 3.42265C22.4086 2.66644 22.6049 1.96068 22.7164 1.5685ZM9.42368 30.5994V27.7779V24.9563L12.5776 24.9688L15.7252 24.9876L15.744 26.0975L15.7566 27.2135H13.7188H11.6809V27.7779V28.3422L13.7062 28.3547L15.7252 28.3735L15.744 29.4834L15.7566 30.5994H12.5901H9.42368ZM17.0106 26.0849V27.2135H20.177H23.3435L23.3309 26.0974L23.3121 24.9876L20.1645 24.9688L17.0106 24.9562V26.0849ZM24.6853 26.2605C24.6288 25.646 24.5975 25.1005 24.6226 25.0503C24.6539 24.9688 24.8608 24.9563 26.2089 24.9688L27.7639 24.9876L27.8078 25.3325L27.8133 25.3873C27.8429 25.6817 27.9472 26.7212 28.0461 27.8092C28.1527 28.9817 28.322 30.8252 28.4223 31.9099C28.5226 32.9946 28.5916 33.9038 28.5728 33.9352C28.554 33.9602 27.8392 33.9853 26.9802 33.9853H25.4252L25.3875 33.7471C25.3687 33.6216 25.3248 33.1765 25.2872 32.7626C25.2496 32.3488 25.1493 31.2453 25.0615 30.3173C24.9842 29.4949 24.9021 28.5901 24.8622 28.1499L24.862 28.1487L24.8483 27.9973L24.8299 27.7934C24.7944 27.3985 24.7376 26.7683 24.6853 26.2605ZM34.3539 25.715C34.7113 25.3011 35.1565 25.1193 36.0594 25.0253C36.3227 24.9939 37.0062 24.9688 37.5767 24.9688C39.9343 24.95 40.8184 25.2134 41.2448 26.0473L41.4329 26.4235V29.3705C41.4329 32.0504 41.4329 32.6092 41.1732 32.9916C41.1048 33.0923 41.0183 33.1808 40.9091 33.2926L40.9091 33.2926L40.9062 33.2956C40.5551 33.6593 40.1162 33.8348 39.3449 33.9226C38.6928 33.9979 36.6613 33.9979 36.0343 33.9289C35.0311 33.8098 34.4479 33.4837 34.1532 32.8755L33.9714 32.5118L33.9526 29.5398C33.9338 26.2229 33.9338 26.2103 34.3539 25.715ZM38.2539 29.5899C38.2727 26.3922 38.2665 26.342 37.9467 26.179C37.6833 26.041 37.5266 26.0661 37.3197 26.2667L37.1378 26.4486V29.4833C37.1441 31.7657 37.1629 32.5369 37.2193 32.6122C37.4325 32.8881 37.8025 32.9257 38.0596 32.7062L38.2351 32.5557L38.2539 29.5899ZM17.0106 33.9853H20.177H23.3435L23.3309 32.8692L23.3121 31.7594L21.2618 31.7406L19.2051 31.7281V31.1637V30.5994H21.2743H23.3435L23.3309 29.4833L23.3121 28.3735L20.1645 28.3547L17.0106 28.3422V31.1637V33.9853ZM9.42368 33.9853V32.8567V31.7281L12.5776 31.7406L15.7252 31.7594L15.744 32.8692L15.7566 33.9853H12.5901H9.42368Z" fill="white"/>
</g>
<defs>
<clipPath id="clip0_4540_8165">
<rect width="40.8658" height="34" fill="white" transform="translate(0.567078 0.000976562)"/>
</clipPath>
</defs>
</svg>

<svg xmlns="http://www.w3.org/2000/svg" width="42" height="34" fill="none"><g clip-path="url(#a)"><path fill="#fff" fill-rule="evenodd" d="M29.902 25.094c-.019.082-.132 1.26-.257 2.621-.125 1.36-.295 3.236-.376 4.17l-.048.523v.001c-.118 1.292-.126 1.389-.115 1.495.012.119 3.135.119 3.172 0 .013-.038.126-1.192.251-2.552.12-1.36.295-3.242.383-4.17l.086-.974c.045-.503.08-.882.083-.97l.013-.25-1.58-.02-1.587-.012-.025.138ZM.658 25.006c-.063.044-.075.985-.063 4.502l.02 4.446h3.197l.031-3.768c.032-3.537.038-3.781.144-3.9a.547.547 0 0 1 .621-.132l.018.007c.05.02.092.037.128.063.218.154.218.617.218 3.863v3.899l1.586-.013 1.58-.019v-1.38c0-1.36 0-1.385-.169-1.736-.301-.64-.922-1.167-1.511-1.273-.351-.07-.332-.138.056-.176.452-.044.972-.3 1.217-.595.313-.383.407-.76.407-1.643 0-.69-.019-.822-.15-1.116a1.645 1.645 0 0 0-.94-.86c-.164-.05-.571-.118-.916-.156-.753-.069-5.361-.081-5.474-.013ZM10.653.233l.144-.113c.138-.113.332-.119 3.668-.119 2.727 0 3.549.019 3.624.075.063.05.27.684.508 1.555.226.81.652 2.339.947 3.405.294 1.06.539 1.956.539 1.988 0 .037-.376.062-.947.062h-.947l.038.213a97 97 0 0 0 .596 2.208c.852 3.053 1.26 4.54 1.26 4.602 0 .037-.389.063-.96.063h-.965l.364 1.297.15.542c.224.803.55 1.973.809 2.913.332 1.185.602 2.182.602 2.214 0 .094-7.43.075-7.512-.025-.031-.038-.357-1.148-.72-2.458l-.16-.569c-.99-3.557-1.036-3.722-.973-3.796l.01-.01.012-.014c.063-.076.251-.094.954-.094.802 0 .871-.007.84-.113-.025-.078-.105-.37-.377-1.352l-.288-1.043-.243-.876-.001-.006v-.001l-.003-.008-.001-.005-.435-1.569a55.172 55.172 0 0 1-.508-1.856c0-.031.044-.106.1-.156.075-.082.257-.1.94-.1.778 0 .847-.007.816-.114-.036-.115-.413-1.469-.838-2.992V3.98l-.523-1.871-.52-1.875Zm12.063 1.335c.377-1.366.42-1.492.552-1.523.063-.019 1.674-.032 3.593-.038 3.31-.006 3.499 0 3.637.113l.144.113-.52 1.875-.698 2.497-.002.01c-.4 1.436-.636 2.278-.661 2.358-.031.107.038.113.815.113.683 0 .865.02.94.1.057.05.1.126.1.157 0 .032-.225.866-.507 1.856l-.071.258a1735.041 1735.041 0 0 1-1.277 4.602c-.031.106.038.113.84.113.715 0 .89.018.953.1.07.075.038.25-.175 1.016-.092.335-.306 1.104-.548 1.97v.004l-.002.006-.002.004-.376 1.351c-.364 1.33-.696 2.452-.728 2.49-.05.062-.884.081-3.793.081H21.2l.037-.175c.037-.145.802-2.897 1.636-5.894l.264-.954h-.96c-.62 0-.965-.024-.965-.062 0-.07.25-.978 1.254-4.577a63.13 63.13 0 0 0 .595-2.214l.044-.232h-.947c-.583 0-.946-.025-.946-.062 0-.032.263-1.016.589-2.176l.396-1.422v-.002l.001-.001c.21-.757.407-1.462.518-1.855ZM9.424 30.6V24.956l3.154.013 3.147.019.019 1.11.013 1.116H11.68v1.128l2.025.013 2.02.018.018 1.11.013 1.116H9.424Zm7.587-4.514v1.128h6.332l-.012-1.116-.019-1.11-3.148-.018-3.153-.013v1.129Zm7.674.175c-.056-.614-.087-1.16-.062-1.21.03-.081.238-.094 1.586-.081l1.555.019.044.345.005.054c.03.295.134 1.334.233 2.422l.376 4.1c.1 1.086.17 1.995.15 2.026-.018.025-.733.05-1.592.05h-1.555l-.038-.238c-.018-.125-.062-.57-.1-.984-.037-.414-.138-1.518-.226-2.446-.077-.822-.159-1.727-.199-2.167v-.001l-.014-.152-.018-.204c-.036-.395-.092-1.025-.145-1.532Zm9.669-.545c.357-.414.803-.596 1.705-.69.264-.031.947-.056 1.518-.056 2.357-.019 3.241.244 3.668 1.078l.188.377v2.947c0 2.68 0 3.238-.26 3.62-.068.101-.155.19-.264.302l-.003.003c-.35.363-.79.539-1.561.627-.652.075-2.684.075-3.31.006-1.004-.12-1.587-.445-1.882-1.053l-.182-.364-.018-2.972c-.02-3.317-.02-3.33.4-3.825Zm3.9 3.875c.019-3.198.013-3.248-.307-3.411-.264-.138-.42-.113-.627.088l-.182.182v3.034c.006 2.283.025 3.054.081 3.13a.572.572 0 0 0 .84.093l.176-.15.019-2.966ZM17.01 33.985h6.332l-.012-1.116-.019-1.11-2.05-.018-2.057-.013V30.6H23.344l-.013-1.116-.019-1.11-3.148-.018-3.153-.013V33.985Zm-7.587 0V31.728l3.154.013 3.147.018.019 1.11.013 1.116H9.424Z" clip-rule="evenodd"/></g><defs><clipPath id="a"><path fill="#fff" d="M.567.001h40.866v34H.567z"/></clipPath></defs></svg>
